svgs/regular/folders.svg

<svg xmlns="http://www.w3.org/2000/svg" viewBox="0 0 640 512"><!-- Font Awesome Pro 6.0.0-alpha2 by @fontawesome - https://fontawesome.com License - https://fontawesome.com/license (Commercial License) --><path d="M80 400V160C53.49 160 32 181.492 32 208V416C32 451.344 60.654 480 96 480H464C490.51 480 512 458.508 512 432H112C94.326 432 80 417.672 80 400ZM544 96H403.883L354.746 50.746C342.742 38.742 326.465 32 309.49 32H192C156.654 32 128 60.656 128 96V320C128 355.344 156.654 384 192 384H544C579.346 384 608 355.344 608 320V160C608 124.656 579.346 96 544 96ZM560 320C560 328.824 552.822 336 544 336H192C183.178 336 176 328.824 176 320V96C176 87.176 183.178 80 192 80H309.49C313.764 80 317.783 81.664 320.805 84.688L384 144H544C552.822 144 560 151.176 560 160V320Z"/></svg>

<svg xmlns="http://www.w3.org/2000/svg" viewBox="0 0 640 512"><!--! Font Awesome Pro 6.0.0-alpha3 by @fontawesome - https://fontawesome.com License - https://fontawesome.com/license (Commercial License) --><path d="M544 96h-140.1l-49.14-45.25C342.7 38.74 326.5 32 309.5 32H192C156.7 32 128 60.66 128 96v224c0 35.34 28.65 64 64 64h352c35.35 0 64-28.66 64-64V160C608 124.7 579.3 96 544 96zM560 320c0 8.824-7.178 16-16 16H192c-8.822 0-16-7.176-16-16V96c0-8.824 7.178-16 16-16h117.5c4.273 0 8.293 1.664 11.31 4.688L384 144h160c8.822 0 16 7.176 16 16V320zM488 480H152C85.83 480 32 426.2 32 360v-240C32 106.8 42.75 96 56 96S80 106.8 80 120v240c0 39.7 32.3 72 72 72h336c13.25 0 24 10.75 24 24S501.3 480 488 480z"/></svg>
